X:1
T:Gerontius, CM
T:Gerontius, CM
T:John Bacchus Dykes, 1868
T:Public Domain Courtesy of the Cyber Hymnal™
C:John Bacchus Dykes, 1868
Z:Public Domain
Z:Courtesy of the Cyber Hymnal™
%%score ( 1 2 ) ( 3 4 )
L:1/8
M:3/4
K:A
V:1 treble 
V:2 treble 
V:3 bass 
V:4 bass 
V:1
 [Ec]2 [Dc]2 [DB]2 | [CA]4 E2 | [EA]4 [Ac]2 | [Ge]6 | [Ec]2 [EB]2 E2 | [DE]4 [CE]2 | E6 | %7
 [CF]2 [FB]2 [Ec]2 | [Dd]4 [Ec]2 | (c2 B2) [FA]2 | G4 [CA]2 | [FB]4 [Fd]2 | [Ec]4 [DB]2 | [CA]6 |] %14
V:2
 x6 | x4 E2 | x6 | x6 | x4 E2 | x6 | (C2 B,4) | x6 | x6 | F4 x2 | (E2 D2) x2 | x6 | x6 | x6 |] %14
V:3
 [A,,E,]2 [A,,F,]2 [A,,G,]2 | ([A,,A,]2 [A,E]2) [B,D]2 | [A,C]4 [F,A,]2 | [E,B,]6 | %4
 [A,,A,]2 [D,G,]2 (A,E,) | (F,2 G,2) [A,,A,]2 | (A,2 G,4) | [E,A,]2 [D,B,]2 [^A,,F,]2 | %8
 (F,2 G,2) [C,A,]2 | (A,2 D2) [^D,C]2 | [E,B,]4 [F,A,]2 | [D,A,]4 [B,,A,]2 | %12
 ([E,A,]3 [D,F,]) [E,G,]2 | [A,,A,]6 |] %14
V:4
 x6 | x6 | x6 | x6 | x4 C,2 | B,,4 x2 | E,6 | x6 | B,,4 x2 | ^D,4 x2 | x6 | x6 | x6 | x6 |] %14

